book-multiple.svg

<svg fill="currentColor" viewBox="0 0 24 24"><path d="M19 18H9a2 2 0 0 1-2-2V4a2 2 0 0 1 2-2h1v5l2-1.5L14 7V2h5a2 2 0 0 1 2 2v12a2 2 0 0 1-2 2m-2 2v2H5a2 2 0 0 1-2-2V6h2v14z"/></svg>

<svg  viewBox="0 0 24 24" fill="currentColor"><path  d="M19,18H9A2,2 0 0,1 7,16V4A2,2 0 0,1 9,2H10V7L12,5.5L14,7V2H19A2,2 0 0,1 21,4V16A2,2 0 0,1 19,18M17,20V22H5A2,2 0 0,1 3,20V6H5V20H17Z"/></svg>
